docs/graphics/year-in-review/donutHalf.svg

<svg viewBox="0 0 216 216" fill="none" xmlns="http://www.w3.org/2000/svg">
<path d="M67.1968 107.895H2.01784C3.06557 49.1936 50.1423 2 108 2C165.858 2 212.934 49.1936 213.982 107.895H157.167C156.137 83.5708 136.418 64.1127 112.182 64.1127C87.9453 64.1127 68.2264 83.5708 67.1968 107.895Z" fill="#FFF" stroke="#111111" stroke-width="4"/>
<path d="M112.182 151.127C136.445 151.127 156.149 131.425 157.152 106.842H213.983C212.947 166.262 165.844 214 108 214C50.1555 214 3.0533 166.262 2.01743 106.842H67.1959C68.2144 131.424 87.9179 151.127 112.182 151.127Z" fill="#111111" stroke="#111111" stroke-width="4"/>
</svg>

<svg xmlns="http://www.w3.org/2000/svg" fill="none" viewBox="0 0 216 216"><path fill="#FFF" stroke="#111" stroke-width="4" d="M67.197 107.895H2.017C3.067 49.194 50.143 2 108 2c57.858 0 104.934 47.194 105.982 105.895h-56.815c-1.03-24.324-20.749-43.782-44.985-43.782-24.237 0-43.956 19.458-44.985 43.782Z"/><path fill="#111" stroke="#111" stroke-width="4" d="M112.182 151.127c24.263 0 43.967-19.702 44.97-44.285h56.831C212.947 166.262 165.844 214 108 214S3.053 166.262 2.017 106.842h65.179c1.018 24.582 20.722 44.285 44.986 44.285Z"/></svg>
